svg/fluentui-system-icons/ic_fluent_emoji_sparkle_28_regular.svg

<svg width="28" height="28" viewBox="0 0 28 28" fill="none" xmlns="http://www.w3.org/2000/svg">
<path d="M18.171 6.82854C18.2641 6.922 18.3511 7.02096 18.4314 7.12476C18.6502 7.40738 18.8198 7.7259 18.9322 8.06707L19.4297 9.59678C19.4714 9.71469 19.5486 9.81678 19.6507 9.889C19.7528 9.96122 19.8749 10 20 10C20.1251 10 20.2472 9.96122 20.3493 9.889C20.4404 9.82457 20.5117 9.73636 20.5556 9.63437C20.5609 9.62204 20.5658 9.6095 20.5703 9.59678L21.0678 8.06707C21.2225 7.60201 21.4836 7.17942 21.8304 6.83287C22.1773 6.48633 22.6002 6.22539 23.0656 6.0708L24.5965 5.57364C24.7145 5.53205 24.8166 5.45491 24.8889 5.35285C24.9612 5.25079 25 5.12885 25 5.00382C25 4.8788 24.9612 4.75686 24.8889 4.6548C24.8166 4.55274 24.7145 4.4756 24.5965 4.43401L24.5659 4.42636L23.035 3.9292C22.5696 3.77461 22.1466 3.51367 21.7998 3.16713C21.453 2.82059 21.1919 2.39799 21.0372 1.93293L20.5396 0.403216C20.498 0.285313 20.4208 0.183217 20.3187 0.110999C20.2165 0.0387817 20.0945 0 19.9694 0C19.8443 0 19.7222 0.0387817 19.6201 0.110999C19.518 0.183217 19.4408 0.285313 19.3991 0.403216L18.9016 1.93293L18.8889 1.9708C18.7814 2.2847 18.6252 2.5789 18.4268 2.84293C18.4251 2.84225 18.4234 2.84157 18.4217 2.8409C18.3345 2.95644 18.2392 3.06615 18.1364 3.16914C17.8003 3.5057 17.3925 3.76175 16.9435 3.91816C16.9476 3.91936 16.9516 3.92056 16.9557 3.92175C16.9486 3.92426 16.9415 3.92674 16.9344 3.9292L15.4035 4.42636C15.2855 4.46795 15.1834 4.54509 15.1111 4.64715C15.0388 4.74921 15 4.87115 15 4.99618C15 5.1212 15.0388 5.24314 15.1111 5.3452C15.1834 5.44726 15.2855 5.5244 15.4035 5.56599L16.9344 6.06315C17.4006 6.21851 17.8241 6.48062 18.171 6.82854ZM26.821 10.3575L27.7395 10.6558L27.7579 10.6604C27.8287 10.6854 27.89 10.7316 27.9333 10.7929C27.9767 10.8541 28 10.9273 28 11.0023C28 11.0773 27.9767 11.1505 27.9333 11.2117C27.89 11.2729 27.8287 11.3192 27.7579 11.3442L26.8394 11.6425C26.5601 11.7352 26.3064 11.8918 26.0983 12.0997C26.0207 12.1773 25.9502 12.2612 25.8875 12.3504C25.8878 12.3519 25.888 12.3534 25.8882 12.3549C25.7833 12.5047 25.7004 12.6694 25.6424 12.844L25.3424 13.762C25.3173 13.8326 25.2709 13.8937 25.2097 13.9369C25.1484 13.9801 25.0753 14.0033 25.0004 14.0033C24.9254 14.0033 24.8523 13.9801 24.7911 13.9369C24.7299 13.8937 24.6835 13.8326 24.6584 13.762L24.4685 13.1811C24.4684 13.1789 24.4682 13.1767 24.468 13.1744L24.3593 12.8402C24.2671 12.5604 24.1107 12.3059 23.9026 12.0971C23.6945 11.8884 23.4404 11.7311 23.1606 11.6379L22.2421 11.3396C22.1713 11.3146 22.11 11.2684 22.0667 11.2071C22.0233 11.1459 22 11.0727 22 10.9977C22 10.9227 22.0233 10.8495 22.0667 10.7883C22.11 10.7271 22.1713 10.6808 22.2421 10.6558L23.1606 10.3575C23.3673 10.2862 23.5595 10.1798 23.7291 10.0436C23.7292 10.0438 23.729 10.0433 23.7291 10.0436C23.7533 10.024 23.7767 10.003 23.8 9.98219C23.8006 9.98211 23.8012 9.98203 23.8019 9.98196C23.8326 9.95463 23.8624 9.92628 23.8913 9.89692C24.0961 9.68913 24.25 9.43684 24.341 9.15976L24.6395 8.24193C24.6645 8.17119 24.7108 8.10993 24.7721 8.0666C24.8333 8.02327 24.9066 8 24.9816 8C25.0567 8 25.1299 8.02327 25.1912 8.0666C25.2525 8.10993 25.2988 8.17119 25.3238 8.24193L25.6223 9.15976C25.7151 9.43879 25.8718 9.69235 26.0799 9.90028C26.288 10.1082 26.5417 10.2648 26.821 10.3575ZM24.7935 14.986C24.6793 14.9683 24.5682 14.9362 24.4627 14.8907C24.0106 20.2728 19.499 24.5 14 24.5C8.20101 24.5 3.5 19.799 3.5 14C3.5 8.20101 8.20101 3.5 14 3.5C14.3149 3.5 14.6265 3.51386 14.9343 3.541C14.9879 3.51608 15.043 3.49402 15.0994 3.475L16.6124 2.984C16.9118 2.88033 17.1847 2.71233 17.412 2.49202C16.3305 2.17186 15.1853 2 14 2C7.37258 2 2 7.37258 2 14C2 20.6274 7.37258 26 14 26C20.4322 26 25.6824 20.9393 25.9861 14.5823C25.9745 14.5944 25.9627 14.6063 25.9506 14.6179C25.7993 14.7645 25.6161 14.8741 25.4153 14.9379C25.2145 15.0018 25.0017 15.0182 24.7935 14.986ZM10.5 13C11.3284 13 12 12.3284 12 11.5C12 10.6716 11.3284 10 10.5 10C9.67157 10 9 10.6716 9 11.5C9 12.3284 9.67157 13 10.5 13ZM19 11.5C19 12.3284 18.3284 13 17.5 13C16.6716 13 16 12.3284 16 11.5C16 10.6716 16.6716 10 17.5 10C18.3284 10 19 10.6716 19 11.5ZM8.32825 17.1299C8.66982 16.8975 9.13472 16.9852 9.36831 17.3254L9.37651 17.3369C9.38499 17.3485 9.3998 17.3685 9.42099 17.3956C9.4634 17.4498 9.53104 17.5323 9.62406 17.6338C9.81053 17.8372 10.0962 18.1136 10.482 18.3912C11.2501 18.9437 12.4127 19.5 14.0001 19.5C15.5875 19.5 16.7501 18.9437 17.5182 18.3912C17.904 18.1136 18.1896 17.8372 18.3761 17.6338C18.4691 17.5323 18.5368 17.4498 18.5792 17.3956C18.6003 17.3685 18.6152 17.3485 18.6236 17.3369L18.6312 17.3263C18.8646 16.9854 19.33 16.8973 19.6719 17.1299C20.0144 17.3628 20.1031 17.8293 19.8702 18.1718L19.8693 18.1731L19.8683 18.1747L19.8657 18.1784L19.8586 18.1886C19.853 18.1965 19.8457 18.2068 19.8366 18.2193C19.8184 18.2443 19.7932 18.278 19.761 18.3193C19.6965 18.4018 19.6036 18.5146 19.4817 18.6475C19.2384 18.9128 18.8771 19.2614 18.3941 19.6088C17.4246 20.3063 15.9621 21 14.0001 21C12.038 21 10.5756 20.3063 9.60604 19.6088C9.12305 19.2614 8.76172 18.9128 8.51842 18.6475C8.39656 18.5146 8.30362 18.4018 8.23916 18.3193C8.20692 18.278 8.18173 18.2443 8.16356 18.2193C8.15447 18.2068 8.14713 18.1965 8.14153 18.1886L8.13444 18.1784L8.13186 18.1747L8.13082 18.1731L8.12994 18.1718C7.89697 17.8293 7.98576 17.3628 8.32825 17.1299Z" fill="#212121"/>
</svg>

<svg xmlns="http://www.w3.org/2000/svg" width="28" height="28"><path d="M18.171 6.829a3.157 3.157 0 0 1 .761 1.238l.498 1.53a.605.605 0 0 0 1.14 0l.498-1.53a3.15 3.15 0 0 1 1.998-1.996l1.53-.497a.605.605 0 0 0 0-1.14l-.03-.008-1.531-.497a3.154 3.154 0 0 1-1.998-1.996L20.54.403a.604.604 0 0 0-1.14 0l-.498 1.53-.013.038a3.152 3.152 0 0 1-.462.872l-.005-.002a3.155 3.155 0 0 1-1.479 1.077l.013.004a3.596 3.596 0 0 1-.022.007l-1.53.497a.605.605 0 0 0 0 1.14l1.53.497c.467.156.89.418 1.237.766Zm8.65 3.529.918.298.019.004a.362.362 0 0 1 0 .684l-.919.299a1.892 1.892 0 0 0-.951.707.07.07 0 0 1 0 .005c-.105.15-.188.314-.246.489l-.3.918a.363.363 0 0 1-.684 0l-.19-.58v-.008l-.109-.334a1.891 1.891 0 0 0-1.198-1.202l-.919-.298a.362.362 0 0 1 0-.684l.919-.299c.206-.07.398-.177.568-.313l.071-.062h.002l.09-.085a1.89 1.89 0 0 0 .449-.737l.299-.918a.363.363 0 0 1 .684 0l.298.918a1.89 1.89 0 0 0 1.199 1.197Zm-2.027 4.628a1.362 1.362 0 0 1-.331-.095C24.01 20.273 19.499 24.5 14 24.5 8.201 24.5 3.5 19.799 3.5 14S8.201 3.5 14 3.5c.315 0 .627.014.934.041.054-.025.109-.047.165-.066l1.513-.491c.3-.104.573-.272.8-.492A12.003 12.003 0 0 0 14 2C7.373 2 2 7.373 2 14s5.373 12 12 12c6.432 0 11.682-5.06 11.986-11.418a1.362 1.362 0 0 1-1.193.404ZM10.5 13a1.5 1.5 0 1 0 0-3 1.5 1.5 0 0 0 0 3Zm8.5-1.5a1.5 1.5 0 1 1-3 0 1.5 1.5 0 0 1 3 0ZM8.328 17.13a.75.75 0 0 1 1.04.195l.009.012.044.059c.042.054.11.136.203.238.187.203.472.48.858.757.768.553 1.93 1.109 3.518 1.109 1.588 0 2.75-.556 3.518-1.109.386-.277.672-.554.858-.757a4.068 4.068 0 0 0 .248-.297l.007-.01a.75.75 0 0 1 1.24.845l-.002.001v.002l-.003.003-.007.01-.022.031a5.508 5.508 0 0 1-.355.428 7.137 7.137 0 0 1-1.088.962C17.424 20.306 15.962 21 14 21c-1.962 0-3.424-.694-4.394-1.391a7.137 7.137 0 0 1-1.088-.962 5.505 5.505 0 0 1-.376-.458l-.008-.01-.002-.004-.001-.002-.001-.001a.75.75 0 0 1 .198-1.042Z"/></svg>
